X:60
T:Paddy on the Handcar
M:C|
Q:1/2=100
L:1/8
K:G
%%MIDI channel 1
%%MIDI program 72
%%MIDI transpose 8
%%MIDI grace 1/8
%%MIDI ratio 3 1
(EA)AA A2 AB|cBAB cBAG|(DG)GG G2 G2|(DG)GG G2 G2|(EA)AA A2 AB|
cBAB c2 cd|edef gfed|c2 A2 A2 z2::.e2 .a2 .e2 .a2|edef gfed|.B2 .g2 .B2 .g2|
BABc d4|.e2 .a2 .e2 .a2|edef gfed|e3 f gfed|c2 A2 A2 z2:|

